svg/u23f3.svg

<svg viewBox="0 0 128 128" xmlns="http://www.w3.org/2000/svg">
  <g>
    <g>
      <path d="M23.36,116.32v-7.42c7.4-1.9,67.86,0,81.28,0v7.42c0,4.24-18.2,7.68-40.64,7.68 S23.36,120.56,23.36,116.32z" fill="#8B5738"/>
      <ellipse cx="64" cy="108.48" rx="40.64" ry="7.68" fill="#FFB17A"/>
      <ellipse cx="64" cy="108.48" rx="40.64" ry="7.68" fill="#CC8552"/>
      <path d="M69.96,65.49c-0.75-0.31-1.07-0.92-1.07-1.73c0-0.81,0.25-1.39,0.98-1.64 c4.61-1.86,27.77-10.73,27.77-38.36l-0.18-4.82l-66.98-0.08l-0.12,5.07c0,26.79,23.08,36.25,27.68,38.11 c0.75,0.31,1.22,0.82,1.22,1.73c0,0.91-0.39,1.39-1.13,1.64c-4.61,1.86-27.77,10.73-27.77,38.36l0,0c0.12,3.12,2.3,5.78,5.34,6.5 c5.04,1.19,14.38,2.57,30.53,2.57c13.91,0,21.7-1.01,26.03-2.03c3.08-0.73,5.29-3.44,5.36-6.6l0.01-0.61 C97.64,76.81,74.57,67.35,69.96,65.49z" opacity="0.75" fill="#81D4FA"/>
      <path d="M97.46,18.94l-66.98-0.08l-0.11,4.52c0,0,7.25,3.72,33.63,3.72s33.63-3.72,33.63-3.72 L97.46,18.94z" opacity="0.39" fill="#1D44B3"/>
      <path d="M23.36,17.94v-7.87c7.18-0.96,70.91,0,81.28,0v7.87c0,3.36-18.2,6.08-40.64,6.08 S23.36,21.3,23.36,17.94z" fill="#8B5738"/>
      <ellipse cx="64" cy="10.08" rx="40.64" ry="6.08" fill="#CC8552"/>
    </g>
    <g>
      <path d="M90.59,108.57c0.92-0.27,1.42-1.31,0.97-2.16c-3.14-5.94-16.54-6.11-21.61-17.27 c-3.38-7.45-3.57-17.81-3.67-22.24c-0.14-5.99,2.85-7.28,2.85-7.28C83.29,53.92,93.7,40.76,94.3,29.01 c0.06-1.17-22.18,9.17-29.83,10.66c-14.14,2.76-28.23-0.87-28.31-0.37c5.24,11.47,15.79,17.46,22.86,20.32 c1.68,0.69,4.46,3.3,4.37,11.14c-0.07,5.61-0.77,20.4-10.44,26.69c-3.64,2.37-11.69,5.84-13.19,9.61 c-0.33,0.83,0.14,1.77,1.01,1.99c2.76,0.7,11.18,1.93,24.27,1.93C75.33,110.99,85.49,110.05,90.59,108.57z" fill="#FFCA28"/>
      <path d="M42.37,43.29c5.36,2.77,17.12,6.72,22.92,4.72s28.23-16.01,29-19c0.96-3.7-26,5.71-35.49,7.91 c-6.43,1.49-18.71,0.72-21.47,1.3C34.58,38.79,37.44,40.74,42.37,43.29z" fill="#E2A610"/>
    </g>
    <g opacity="0.6">
      <path d="M45.79,37.66c1.26,2.94,3.56,9.61,0.56,10.75c-3,1.15-7.39-3.11-9.47-7.39s-1.89-9.96,1.25-10.05 C41.27,30.88,44.12,33.77,45.79,37.66z" fill="#FFFFFF"/>
    </g>
    <g opacity="0.6">
      <path d="M42.9,80.6c-3.13,3.66-5.48,8.58-4.59,13.33c0.94,5.01,5.6,3.63,7.22,2.36 c5.16-4.05,3.75-9.24,7.74-15.07c0.68-1,3.52-4.13,3.12-6.1c-0.24-1.17-2.96-1.77-7.91,0.71C46.3,76.93,44.51,78.73,42.9,80.6z" fill="#FFFFFF"/>
    </g>
  </g>
</svg>

<svg viewBox="0 0 128 128" xmlns="http://www.w3.org/2000/svg">
  <defs/>
  <path d="M23.36,116.32 L23.36,108.9 C30.76,107 91.22,108.9 104.64,108.9 L104.64,116.32 C104.64,120.56 86.44,124 64,124 C41.56,124 23.36,120.56 23.36,116.32 Z" fill="#8B5738"/>
  <path d="M104.64,108.48 A40.64 7.68 0 1 1 23.36,108.48 A40.64 7.68 0 1 1 104.64,108.48 Z" fill="#FFB17A"/>
  <path d="M104.64,108.48 A40.64 7.68 0 1 1 23.36,108.48 A40.64 7.68 0 1 1 104.64,108.48 Z" fill="#CC8552"/>
  <path d="M69.96,65.49 C69.21,65.18 68.89,64.57 68.89,63.76 C68.89,62.95 69.14,62.37 69.87,62.12 C74.48,60.26 97.64,51.39 97.64,23.76 L97.46,18.94 L30.48,18.86 L30.36,23.93 C30.36,50.72 53.44,60.18 58.04,62.04 C58.79,62.35 59.26,62.86 59.26,63.77 C59.26,64.68 58.87,65.16 58.13,65.41 C53.52,67.27 30.36,76.14 30.36,103.77 L30.36,103.77 C30.48,106.89 32.66,109.55 35.7,110.27 C40.74,111.46 50.08,112.84 66.23,112.84 C80.14,112.84 87.93,111.83 92.26,110.81 C95.34,110.08 97.55,107.37 97.62,104.21 L97.63,103.6 C97.64,76.81 74.57,67.35 69.96,65.49 Z" fill="#81D4FA" opacity="0.75"/>
  <path d="M97.46,18.94 L30.48,18.86 L30.37,23.38 C30.37,23.38 37.62,27.1 64,27.1 C90.38,27.1 97.63,23.38 97.63,23.38 L97.46,18.94 Z" fill="#1D44B3" opacity="0.39"/>
  <path d="M23.36,17.94 L23.36,10.07 C30.54,9.11 94.27,10.07 104.64,10.07 L104.64,17.94 C104.64,21.3 86.44,24.02 64,24.02 C41.56,24.02 23.36,21.3 23.36,17.94 Z" fill="#8B5738"/>
  <path d="M104.64,10.08 A40.64 6.08 0 1 1 23.36,10.08 A40.64 6.08 0 1 1 104.64,10.08 Z" fill="#CC8552"/>
  <path d="M90.59,108.57 C91.51,108.3 92.01,107.26 91.56,106.41 C88.42,100.47 75.02,100.3 69.95,89.14 C66.57,81.69 66.38,71.33 66.28,66.9 C66.14,60.91 69.13,59.62 69.13,59.62 C83.29,53.92 93.7,40.76 94.3,29.01 C94.36,27.84 72.12,38.18 64.47,39.67 C50.33,42.43 36.24,38.8 36.16,39.3 C41.4,50.77 51.95,56.76 59.02,59.62 C60.7,60.31 63.48,62.92 63.39,70.76 C63.32,76.37 62.62,91.16 52.95,97.45 C49.31,99.82 41.26,103.29 39.76,107.06 C39.43,107.89 39.9,108.83 40.77,109.05 C43.53,109.75 51.95,110.98 65.04,110.98 C75.33,110.99 85.49,110.05 90.59,108.57 Z" fill="#FFCA28"/>
  <path d="M42.37,43.29 C47.73,46.06 59.49,50.01 65.29,48.01 C71.09,46.01 93.52,32 94.29,29.01 C95.25,25.31 68.29,34.72 58.8,36.92 C52.37,38.41 40.09,37.64 37.33,38.22 C34.58,38.79 37.44,40.74 42.37,43.29 Z" fill="#E2A610"/>
  <path d="M45.79,37.66 C47.05,40.6 49.35,47.27 46.35,48.41 C43.35,49.56 38.96,45.3 36.88,41.02 C34.8,36.74 34.99,31.06 38.13,30.97 C41.27,30.88 44.12,33.77 45.79,37.66 Z" fill="#FFFFFF" opacity="0.6"/>
  <path d="M42.9,80.6 C39.77,84.26 37.42,89.18 38.31,93.93 C39.25,98.94 43.91,97.56 45.53,96.29 C50.69,92.24 49.28,87.05 53.27,81.22 C53.95,80.22 56.79,77.09 56.39,75.12 C56.15,73.95 53.43,73.35 48.48,75.83 C46.3,76.93 44.51,78.73 42.9,80.6 Z" fill="#FFFFFF" opacity="0.6"/>
</svg>
